icons/numix/16x16/mimetypes/application-postscript.svg

<?xml version="1.0" encoding="UTF-8" standalone="no"?>
<svg
   xmlns:dc="http://purl.org/dc/elements/1.1/"
   xmlns:cc="http://creativecommons.org/ns#"
   xmlns:rdf="http://www.w3.org/1999/02/22-rdf-syntax-ns#"
   xmlns:svg="http://www.w3.org/2000/svg"
   xmlns="http://www.w3.org/2000/svg"
   xmlns:sodipodi="http://sodipodi.sourceforge.net/DTD/sodipodi-0.dtd"
   xmlns:inkscape="http://www.inkscape.org/namespaces/inkscape"
   width="16"
   height="16"
   viewBox="0 0 16 16"
   id="svg2"
   version="1.1"
   inkscape:version="0.48.5 r10040"
   sodipodi:docname="application-postscript.svg">
  <metadata
     id="metadata22">
    <rdf:RDF>
      <cc:Work
         rdf:about="">
        <dc:format>image/svg+xml</dc:format>
        <dc:type
           rdf:resource="http://purl.org/dc/dcmitype/StillImage" />
      </cc:Work>
    </rdf:RDF>
  </metadata>
  <defs
     id="defs20" />
  <sodipodi:namedview
     pagecolor="#ffffff"
     bordercolor="#666666"
     borderopacity="1"
     objecttolerance="10"
     gridtolerance="10"
     guidetolerance="10"
     inkscape:pageopacity="0"
     inkscape:pageshadow="2"
     inkscape:window-width="1280"
     inkscape:window-height="970"
     id="namedview18"
     showgrid="true"
     inkscape:zoom="41.7193"
     inkscape:cx="9.8777215"
     inkscape:cy="8.3685768"
     inkscape:window-x="0"
     inkscape:window-y="0"
     inkscape:window-maximized="1"
     inkscape:current-layer="svg2">
    <inkscape:grid
       type="xygrid"
       id="grid3010" />
  </sodipodi:namedview>
  <path
     style="fill:#eb1b23;fill-opacity:1"
     d="M 2.667969,-4.465e-4 C 2.324219,-4.465e-4 2,0.3378115 2,0.6964462 L 2,15.303108 C 2,15.641365 2.34375,16 2.667969,16 l 10.664062,0 C 13.65625,16 14,15.641365 14,15.303108 L 14,3.9995533 10,-4.465e-4 z"
     id="path4-2"
     inkscape:connector-curvature="0"
     sodipodi:nodetypes="ssssssccs" />
  <path
     style="fill:#000000;fill-opacity:0.19599998"
     d="m 10.583223,3.3315843 0.0154,0.01953 0.04005,-0.01953 z m 0.02978,0.667969 3.387,3.664062 0,-3.664062 z"
     id="path6"
     inkscape:connector-curvature="0"
     sodipodi:nodetypes="cccccccc" />
  <path
     style="fill:#ffffff;fill-opacity:0.39200003"
     d="m 10,-4.465e-4 3.996396,3.9999998 -3.383784,0 C 10.313513,3.9995533 10,3.6824363 10,3.3833373 z"
     id="path8"
     inkscape:connector-curvature="0"
     sodipodi:nodetypes="ccssc" />
  <g
     style="fill:#ffffff"
     id="g10"
     transform="matrix(1.1403154,0,0,1.1403154,-1.1225351,-1.1223974)">
    <path
       d="m 5.785156,7.929688 c 0.257813,0.011718 0.539063,0.175781 0.75,0.316406 0.617188,0.410156 1.109375,1.089844 1.011719,1.875 C 7.640625,9.96875 7.644531,9.753906 7.644531,9.582031 7.644531,9.035156 7.351562,8.46875 6.980469,8.085938 6.855469,7.957031 6.722656,7.8125 6.5625,7.734375 L 8.398438,5.558594 8.839844,5.035156 C 8.875,4.996094 8.988281,4.902344 8.964844,4.84375 8.941406,4.785156 8.835938,4.75 8.785156,4.730469 8.730469,4.703125 8.625,4.648438 8.5625,4.671875 8.5,4.695312 8.445312,4.785156 8.402344,4.835938 L 8.066406,5.234375 6.476562,7.097656 6.003906,7.648438 C 5.929688,7.734375 5.832031,7.824219 5.785156,7.929688 z"
       id="path12"
       inkscape:connector-curvature="0" />
    <path
       d="M 4.742188,8.566406 C 5.375,7.894531 5.933594,7.144531 6.535156,6.449219 L 7.300781,5.542969 C 7.476562,5.339844 7.6875,5.136719 7.828125,4.90625 7.734375,4.878906 7.523438,4.863281 7.4375,4.910156 7.34375,4.957031 7.265625,5.082031 7.199219,5.160156 L 6.761719,5.65625 C 6.699219,5.730469 6.621094,5.851562 6.535156,5.894531 6.40625,5.960938 6.175781,5.933594 6.035156,5.9375 L 5.519531,5.980469 C 5.136719,6.007812 4.699219,6.007812 4.511719,6.417969 4.359375,6.75 4.382812,7.21875 4.367188,7.578125 c -0.035157,0.75 -0.058594,1.511719 0.011718,2.257813 0.027344,0.320312 -0.00781,0.730468 0.15625,1.019531 0.160156,0.277343 0.472656,0.339843 0.761719,0.367187 0.566406,0.05078 1.242187,0.03906 1.695313,-0.359375 C 7.535156,10.394531 7.457031,9.554688 6.964844,9.089844 6.425781,8.582031 5.441406,8.324219 4.742188,8.566406 z"
       id="path14"
       inkscape:connector-curvature="0" />
    <path
       d="m 6.644531,11.292969 c 0.101563,0.04297 0.277344,0.02734 0.390625,0.02734 l 0.707032,0.01172 c 0.898437,0 1.789062,-0.05469 2.683593,-0.09766 0.425781,-0.01953 0.90625,-0.03516 1.082031,-0.507813 0.113282,-0.300781 0.09375,-0.683593 0.113282,-1.003906 0.05078,-0.730468 0.07031,-1.484375 0,-2.214844 -0.03125,-0.34375 0.01172,-0.769531 -0.136719,-1.089843 C 11.253906,5.925781 10.5625,5.964844 10.105469,5.953125 9.992188,5.949219 9.78125,5.882812 9.679688,5.933594 9.601562,5.972656 9.554688,6.171875 9.519531,6.25 l -0.40625,0.890625 c -0.472656,1.050781 -0.917969,2.128906 -1.4375,3.164063 -0.199219,0.398437 -0.558593,0.90625 -1.03125,0.988281 z"
       id="path16"
       inkscape:connector-curvature="0" />
  </g>
</svg>

<svg width="16" xmlns="http://www.w3.org/2000/svg" height="16" viewBox="0 0 16 16" xmlns:xlink="http://www.w3.org/1999/xlink">
<path style="fill:#eb1b23" d="M 2.667969 0.332031 C 2.324219 0.332031 2 0.65625 2 1 L 2 15 C 2 15.324219 2.34375 15.667969 2.667969 15.667969 L 13.332031 15.667969 C 13.65625 15.667969 14 15.324219 14 15 L 14 4.667969 L 9.667969 0.332031 Z "/>
<path style="fill:#000;fill-opacity:.196" d="M 9.667969 4 L 9.6875 4.019531 L 9.738281 4 Z M 10.332031 4.667969 L 14 8.332031 L 14 4.667969 Z "/>
<path style="fill:#fff;fill-opacity:.392" d="M 9.667969 0.332031 L 14 4.667969 L 10.332031 4.667969 C 10.007812 4.667969 9.667969 4.324219 9.667969 4 Z "/>
<g style="fill:#fff">
<path d="M 5.785156 7.929688 C 6.042969 7.941406 6.324219 8.105469 6.535156 8.246094 C 7.152344 8.65625 7.644531 9.335938 7.546875 10.121094 C 7.640625 9.96875 7.644531 9.753906 7.644531 9.582031 C 7.644531 9.035156 7.351562 8.46875 6.980469 8.085938 C 6.855469 7.957031 6.722656 7.8125 6.5625 7.734375 L 8.398438 5.558594 L 8.839844 5.035156 C 8.875 4.996094 8.988281 4.902344 8.964844 4.84375 C 8.941406 4.785156 8.835938 4.75 8.785156 4.730469 C 8.730469 4.703125 8.625 4.648438 8.5625 4.671875 C 8.5 4.695312 8.445312 4.785156 8.402344 4.835938 L 8.066406 5.234375 L 6.476562 7.097656 L 6.003906 7.648438 C 5.929688 7.734375 5.832031 7.824219 5.785156 7.929688 Z "/>
<path d="M 4.742188 8.566406 C 5.375 7.894531 5.933594 7.144531 6.535156 6.449219 L 7.300781 5.542969 C 7.476562 5.339844 7.6875 5.136719 7.828125 4.90625 C 7.734375 4.878906 7.523438 4.863281 7.4375 4.910156 C 7.34375 4.957031 7.265625 5.082031 7.199219 5.160156 L 6.761719 5.65625 C 6.699219 5.730469 6.621094 5.851562 6.535156 5.894531 C 6.40625 5.960938 6.175781 5.933594 6.035156 5.9375 L 5.519531 5.980469 C 5.136719 6.007812 4.699219 6.007812 4.511719 6.417969 C 4.359375 6.75 4.382812 7.21875 4.367188 7.578125 C 4.332031 8.328125 4.308594 9.089844 4.378906 9.835938 C 4.40625 10.15625 4.371094 10.566406 4.535156 10.855469 C 4.695312 11.132812 5.007812 11.195312 5.296875 11.222656 C 5.863281 11.273438 6.539062 11.261719 6.992188 10.863281 C 7.535156 10.394531 7.457031 9.554688 6.964844 9.089844 C 6.425781 8.582031 5.441406 8.324219 4.742188 8.566406 Z "/>
<path d="M 6.644531 11.292969 C 6.746094 11.335938 6.921875 11.320312 7.035156 11.320312 L 7.742188 11.332031 C 8.640625 11.332031 9.53125 11.277344 10.425781 11.234375 C 10.851562 11.214844 11.332031 11.199219 11.507812 10.726562 C 11.621094 10.425781 11.601562 10.042969 11.621094 9.722656 C 11.671875 8.992188 11.691406 8.238281 11.621094 7.507812 C 11.589844 7.164062 11.632812 6.738281 11.484375 6.417969 C 11.253906 5.925781 10.5625 5.964844 10.105469 5.953125 C 9.992188 5.949219 9.78125 5.882812 9.679688 5.933594 C 9.601562 5.972656 9.554688 6.171875 9.519531 6.25 L 9.113281 7.140625 C 8.640625 8.191406 8.195312 9.269531 7.675781 10.304688 C 7.476562 10.703125 7.117188 11.210938 6.644531 11.292969 Z "/>
</g>
</svg>
